public/img/icons/ruler.svg

<svg width="85" height="85" viewBox="0 0 85 85" fill="none" xmlns="http://www.w3.org/2000/svg">
<g clip-path="url(#clip0_123_5969)">
<path d="M42.4498 7.33775L39.4982 14.0258L41.2907 14.817L43.0821 15.6078L50.7244 18.9807L49.1441 22.5639L41.5006 19.1906L39.7093 18.3998L37.9166 17.6086L36.6779 20.4151L38.4704 21.2064L40.2623 21.9959L43.452 23.4046L41.8704 26.9873L38.6809 25.5787L36.8889 24.7891L35.0975 23.9983L33.4194 27.801L35.2113 28.5905L37.0026 29.3813L44.6461 32.7547L43.0645 36.3374L35.4211 32.964L33.6308 32.1738L31.8378 31.3837L30.4855 34.4484L32.2769 35.2392L34.0688 36.0287L37.2584 37.4373L35.6781 41.0206L32.4872 39.6115L30.6954 38.8219L28.904 38.0311L27.3398 41.5744L29.1328 42.3645L30.9243 43.1553L38.5678 46.5287L36.9862 50.1114L29.3427 46.7381L27.5514 45.9473L25.7595 45.1577L24.292 48.4811L26.0833 49.2719L27.8763 50.062L31.066 51.4707L29.4845 55.0534L26.2949 53.6448L24.503 52.8553L22.7104 52.0639L21.2615 55.3484L23.0529 56.1392L24.8442 56.93L32.4876 60.3034L30.9061 63.8861L23.2639 60.5132L21.4713 59.7219L19.6799 58.9312L16.6232 65.8582L41.9006 77.0133L67.7272 18.4929L42.4498 7.33775Z" fill="white"/>
</g>
<defs>
<clipPath id="clip0_123_5969">
<rect width="64" height="64" fill="white" transform="translate(25.7676 1.52588e-05) rotate(23.7419)"/>
</clipPath>
</defs>
</svg>

<svg xmlns="http://www.w3.org/2000/svg" width="85" height="85" fill="none" viewBox="0 0 85 85"><g clip-path="url(#a)"><path fill="#fff" d="m42.45 7.338-2.952 6.688 1.793.791 1.791.79 7.642 3.374-1.58 3.583-7.643-3.373-1.792-.791-1.792-.791-1.24 2.806 1.793.791 1.792.79 3.19 1.409-1.582 3.582-3.19-1.408-1.791-.79-1.792-.79L33.42 27.8l1.792.79 1.792.79 7.643 3.374-1.581 3.582-7.644-3.373-1.79-.79-1.793-.79-1.353 3.064 1.792.791 1.792.79 3.19 1.408-1.58 3.584-3.192-1.41-1.792-.79-1.791-.79-1.564 3.543 1.793.79 1.791.791 7.644 3.374-1.582 3.582-7.643-3.373-1.792-.79-1.791-.79-1.468 3.323 1.791.79 1.793.791 3.19 1.409-1.581 3.582-3.19-1.408-1.792-.79-1.793-.791-1.448 3.284 1.79.791 1.792.791 7.644 3.373-1.582 3.583-7.642-3.373-1.793-.791-1.791-.79-3.057 6.926 25.278 11.155 25.826-58.52z"/></g><defs><clipPath id="a"><path fill="#fff" d="M25.768 0 84.35 25.768 58.584 84.35 0 58.584z"/></clipPath></defs></svg>
